X: 32768
T: Polska With No Name
R: waltz
M: 3/4
K: Bminor
|:fg/f/ ef/e/ dc|de/d/ cd/c/ B^A|B2 Bc de|f/e/d/c/ dA FD|
fg/f/ ef/e/ dc|de/d/ cd/c/ B^A|B2 Bc de|f/e/d/e/ f2 f2:|
|:f2-fe/f/ gf|fe ed/e/ fe|dc/d/ ed cB|B^A/B/ c/B/^A/^G/ F2|
f2-fe/f/ gf|fe ed/e/ fe|dc/d/ ed cB|1 d/c/B/^A/ B2 B/c/d/e/:|2 d/c/B/^A/ B2B2|

